src/assets/Imgs/proposal/voteIcon.svg

<svg fill="none" height="44" viewBox="0 0 44 44" width="44" xmlns="http://www.w3.org/2000/svg"><rect fill="#1f9e14" height="44" rx="8" width="44"/><g fill="#fff"><path d="m11.8794 21.9299h3.5201c.5867 0 .88.3036.88.9108v10.0191c0 .6072-.2933.9108-.88.9108h-3.5201c-.5867 0-.88-.3036-.88-.9108v-10.0191c0-.6072.2933-.9108.88-.9108z"/><path d="m20.2396 11h3.5201c.5867 0 .8801.3036.8801.9108v20.949c0 .6072-.2934.9108-.8801.9108h-3.5201c-.5866 0-.88-.3036-.88-.9108v-20.949c0-.6072.2934-.9108.88-.9108z"/><path d="m28.5999 17.3758h3.5201c.5867 0 .88.3036.88.9108v14.5732c0 .6072-.2933.9108-.88.9108h-3.5201c-.5867 0-.88-.3036-.88-.9108v-14.5732c0-.6072.2933-.9108.88-.9108z"/></g></svg>

<svg width="44" height="44" viewBox="0 0 44 44" fill="none" xmlns="http://www.w3.org/2000/svg">
<rect width="44" height="44" rx="8" fill="#1F9E14"/>
<path d="M11.8794 21.9299H15.3995C15.9862 21.9299 16.2795 22.2335 16.2795 22.8407V32.8598C16.2795 33.467 15.9862 33.7706 15.3995 33.7706H11.8794C11.2927 33.7706 10.9994 33.467 10.9994 32.8598V22.8407C10.9994 22.2335 11.2927 21.9299 11.8794 21.9299Z" fill="white"/>
<path d="M20.2396 11H23.7597C24.3464 11 24.6398 11.3036 24.6398 11.9108V32.8598C24.6398 33.467 24.3464 33.7706 23.7597 33.7706H20.2396C19.653 33.7706 19.3596 33.467 19.3596 32.8598V11.9108C19.3596 11.3036 19.653 11 20.2396 11Z" fill="white"/>
<path d="M28.5999 17.3758H32.12C32.7067 17.3758 33 17.6794 33 18.2866V32.8598C33 33.467 32.7067 33.7706 32.12 33.7706H28.5999C28.0132 33.7706 27.7199 33.467 27.7199 32.8598V18.2866C27.7199 17.6794 28.0132 17.3758 28.5999 17.3758Z" fill="white"/>
</svg>
